neoactive/svg/bg_waves.svg

<?xml version="1.0" encoding="UTF-8" standalone="no"?>
<svg
   xmlns:dc="http://purl.org/dc/elements/1.1/"
   xmlns:cc="http://creativecommons.org/ns#"
   xmlns:rdf="http://www.w3.org/1999/02/22-rdf-syntax-ns#"
   xmlns:svg="http://www.w3.org/2000/svg"
   xmlns="http://www.w3.org/2000/svg"
   viewBox="0 0 4800 2700"
   height="2700"
   width="4800"
   xml:space="preserve"
   version="1.1"
   id="svg2"><metadata
     id="metadata8"><rdf:RDF><cc:Work
         rdf:about=""><dc:format>image/svg+xml</dc:format><dc:type
           rdf:resource="http://purl.org/dc/dcmitype/StillImage" /></cc:Work></rdf:RDF></metadata><defs
     id="defs6"><clipPath
       id="clipPath18"
       clipPathUnits="userSpaceOnUse"><path
         id="path20"
         d="m 0,2160 3840,0 L 3840,0 0,0 0,2160 Z" /></clipPath></defs><g
     transform="matrix(1.25,0,0,-1.25,0,2700)"
     id="g10"><path
       id="path12"
       style="fill:#458bc5;fill-opacity:1;fill-rule:nonzero;stroke:none"
       d="m 0,0 3840,0 0,350.569 -3840,0 L 0,0 Z" /><g
       id="g14"><g
         clip-path="url(#clipPath18)"
         id="g16"><g
           transform="translate(0,94.6948)"
           id="g22"><path
             id="path24"
             style="fill:#4b96d5;fill-opacity:1;fill-rule:nonzero;stroke:none"
             d="M 0,0 C 0,0 2864.092,328.528 3840,109.509 L 3840,317 c 0,0 -726.568,599.419 -1974.273,426.51 C 618.022,570.601 0,345.819 0,345.819 L 0,0 Z" /></g><g
           transform="translate(0,411.6952)"
           id="g26"><path
             id="path28"
             style="fill:#458bc5;fill-opacity:1;fill-rule:nonzero;stroke:none"
             d="m 0,0 c 0,0 2485.116,737.746 3840,0 l 0,1123.91 L 1562.547,1394.801 0,997.11 0,0 Z" /></g><path
           id="path30"
           style="fill:#2b394d;fill-opacity:1;fill-rule:nonzero;stroke:none"
           d="m 3840,1806.497 -3840,0 0,353.503 3840,0 0,-353.503 z" /><g
           transform="translate(0,1875.6603)"
           id="g32"><path
             id="path34"
             style="fill:#346494;fill-opacity:1;fill-rule:nonzero;stroke:none"
             d="M 0,0 C 0,0 851.238,103.746 1562.547,-69.164 L 0,-536.019 0,0 Z" /></g><g
           transform="translate(1562.5465,1806.4966)"
           id="g36"><path
             id="path38"
             style="fill:#346494;fill-opacity:1;fill-rule:nonzero;stroke:none"
             d="m 0,0 c 0,0 1068.329,-299.709 2277.454,-270.891 l 0,409.218 C 2277.454,138.327 1381.804,317 0,0" /></g></g></g></g></svg>

<?xml version="1.0" encoding="UTF-8" standalone="no"?>
<svg
   xmlns:dc="http://purl.org/dc/elements/1.1/"
   xmlns:cc="http://creativecommons.org/ns#"
   xmlns:rdf="http://www.w3.org/1999/02/22-rdf-syntax-ns#"
   xmlns:svg="http://www.w3.org/2000/svg"
   xmlns="http://www.w3.org/2000/svg"
   viewBox="0 0 5120 2880"
   height="2880"
   width="5120"
   xml:space="preserve"
   id="svg2"
   version="1.1"><metadata
     id="metadata8"><rdf:RDF><cc:Work
         rdf:about=""><dc:format>image/svg+xml</dc:format><dc:type
           rdf:resource="http://purl.org/dc/dcmitype/StillImage" /></cc:Work></rdf:RDF></metadata><defs
     id="defs6"><clipPath
       id="clipPath20"
       clipPathUnits="userSpaceOnUse"><path
         id="path18"
         d="M 0,2160 H 3840 V 0 H 0 Z" /></clipPath></defs><g
     transform="matrix(1.3333333,0,0,-1.3333333,0,2879.9999)"
     id="g10"><path
       id="path12"
       style="fill:#458bc5;fill-opacity:1;fill-rule:nonzero;stroke:none"
       d="M 0,0 H 3840 V 350.569 H 0 Z" /><g
       id="g14"><g
         clip-path="url(#clipPath20)"
         id="g16"><g
           transform="translate(0,94.6948)"
           id="g22"><path
             id="path24"
             style="fill:#4b96d5;fill-opacity:1;fill-rule:nonzero;stroke:none"
             d="M 0,0 C 0,0 2864.092,328.528 3840,109.509 V 317 c 0,0 -726.568,599.419 -1974.273,426.51 C 618.022,570.601 0,345.819 0,345.819 Z" /></g><g
           transform="translate(0,411.6952)"
           id="g26"><path
             id="path28"
             style="fill:#458bc5;fill-opacity:1;fill-rule:nonzero;stroke:none"
             d="M 0,0 C 0,0 2485.116,737.746 3840,0 V 1123.91 L 1562.547,1394.801 0,997.11 Z" /></g><path
           id="path30"
           style="fill:#2b394d;fill-opacity:1;fill-rule:nonzero;stroke:none"
           d="M 3840,1806.497 H 0 V 2160 h 3840 z" /><g
           transform="translate(0,1875.6603)"
           id="g32"><path
             id="path34"
             style="fill:#346494;fill-opacity:1;fill-rule:nonzero;stroke:none"
             d="M 0,0 C 0,0 851.238,103.746 1562.547,-69.164 L 0,-536.019 Z" /></g><g
           transform="translate(1562.5465,1806.4966)"
           id="g36"><path
             id="path38"
             style="fill:#346494;fill-opacity:1;fill-rule:nonzero;stroke:none"
             d="M 0,0 C 0,0 1068.329,-299.709 2277.454,-270.891 V 138.327 C 2277.454,138.327 1381.804,317 0,0" /></g></g></g></g></svg>
